src/assets/svg/16/icon-plus-16.svg

<svg width="32" height="32" viewBox="0 0 32 32" xmlns="http://www.w3.org/2000/svg"><title>Icons/16/icon-plus-16</title><desc>Created with Sketch.</desc><path fill="#252525" fill-rule="nonzero" d="M15 15v-6h1v6h6v1h-6v6h-1v-6h-6v-1z"/></svg>

<svg width="32" height="32" viewBox="0 0 32 32" fill="none" xmlns="http://www.w3.org/2000/svg">
<path fill-rule="evenodd" clip-rule="evenodd" d="M15 15V9H16V15H22V16H16V22H15V16H9V15H15Z" fill="currentColor"/>
</svg>
